X:51
T:Duke Humphrey. ThoH.051
Q:1/2=90
M:3/2
L:1/8
B:Thompson's Compleat Collection of 120 Favourite Hornpipes.
Z:Village Music Project, Simon Wilson 2016
O:England.
K:A
A4c>de2dcTB^A|B4{cde}d4cB{B}TAG|(AF)({F}ED) (CE)A2(GB)d2|(ce)a2(ec)({c}TBA) ((3GBA) ((3GFE)|
A4(c>d)e2(dc){c}TB^A|B4{ce}d4(cB)(AG)|(cB)(AG)|(Ac)e2(ce)a2{g}Tf3e|(dc)(BA) (GB)(EG)A2!fine!A,2:|
|:e4(gb)(ge) (^df)(dB)|c4(ag){g}(Tfe) (^dc){c}(TBA)|(GB)e2(^df) a2(ge)(f^d)|(ec){c}T(BA) (Ge)(F^d)e2E2|
e4=g4(fd)(ec)|d2D2f4(ec)(dB)|c2C2e4(dBcA)|(Bd)f2(ec){c}(BA) ((3GBA) ((3GFE)!D.C.!:|

